X:3557
L:1/8
M:4/4
K:G
 (3DEF | G>F G>A G2 B>A | G>F G>A G2 A>B | c>B A>G F>G A>G | F>E D>^C D>F A>F | G>F G>A G2 B>A | 
 G>F G>A G2 A>B | c>B A>G F>G F>G A>F | G2 B2 G2 :: A>B | c2 A2 A>c A>c | B2 G2 G>B G>B | 
 A>B A>G F>G A>G | F>E D>^C D>F A>F | c2 A2 A>c A>c | B2 G2 G>B G>B | A>B A>G F>G A>F | G2 B2 G2 :|

